X: 1
T: Bernadette's Reel
C: Jerry Holland
R: reel
Z: 2005 John Chambers <jc:trillian.mit.edu>
M: C|
L: 1/8
K: Am
|: B, \
| A,2AG {G}A2AB, | A,AAc BGGA | A,AAG {G}A2Ac |1 BGGe dGGA :|2 BGGe dGG ||
K: C
|: d \
| cdef Tgedc | BGGE GFFA |1 cdef gece | dGAB ~c2cG :|2 cdef gece | dGAB c2c |]
